packages/assets/static/images/icons/lg-map-location.svg

<svg width="24" height="24" viewBox="0 0 24 24" xmlns="http://www.w3.org/2000/svg" fill="currentColor" aria-hidden="true"> <path d="M10.625 7.5C10.625 7.12916 10.735 6.76665 10.941 6.45831C11.147 6.14996 11.4399 5.90964 11.7825 5.76773C12.1251 5.62581 12.5021 5.58868 12.8658 5.66103C13.2295 5.73337 13.5636 5.91195 13.8258 6.17417C14.088 6.4364 14.2666 6.77049 14.339 7.13421C14.4113 7.49792 14.3742 7.87492 14.2323 8.21753C14.0904 8.56014 13.85 8.85298 13.5417 9.05901C13.2334 9.26503 12.8708 9.375 12.5 9.375C12.0027 9.375 11.5258 9.17746 11.1742 8.82583C10.8225 8.47419 10.625 7.99728 10.625 7.5ZM6.125 7.5C6.125 5.80925 6.79665 4.18774 7.99219 2.99219C9.18774 1.79665 10.8092 1.125 12.5 1.125C14.1908 1.125 15.8123 1.79665 17.0078 2.99219C18.2034 4.18774 18.875 5.80925 18.875 7.5C18.875 13.3359 13.2959 16.5938 13.0578 16.7269C12.8879 16.8239 12.6956 16.8749 12.5 16.8749C12.3044 16.8749 12.1121 16.8239 11.9422 16.7269C11.7041 16.5938 6.125 13.3359 6.125 7.5ZM8.375 7.5C8.375 11.0813 11.2541 13.5188 12.5 14.4037C13.7384 13.5141 16.625 11.0625 16.625 7.5C16.625 6.40598 16.1904 5.35677 15.4168 4.58318C14.6432 3.8096 13.594 3.375 12.5 3.375C11.406 3.375 10.3568 3.8096 9.58318 4.58318C8.8096 5.35677 8.375 6.40598 8.375 7.5ZM20.0534 13.65C19.9165 13.5919 19.7694 13.5615 19.6207 13.5606C19.472 13.5598 19.3245 13.5884 19.1869 13.6448C19.0493 13.7013 18.9243 13.7845 18.819 13.8896C18.7138 13.9947 18.6304 14.1196 18.5738 14.2572C18.5171 14.3947 18.4883 14.5421 18.489 14.6908C18.4897 14.8396 18.5199 14.9867 18.5778 15.1237C18.6357 15.2607 18.7202 15.3848 18.8264 15.489C18.9326 15.5931 19.0584 15.6751 19.1966 15.7303C20.5212 16.2759 21.125 16.9003 21.125 17.25C21.125 17.625 20.4566 18.2878 18.9903 18.8512C17.2747 19.5075 14.9694 19.875 12.5 19.875C10.0306 19.875 7.72531 19.5112 6.00969 18.8512C4.5425 18.2878 3.875 17.625 3.875 17.25C3.875 16.9003 4.47875 16.2759 5.80344 15.7303C5.94156 15.6751 6.06736 15.5931 6.17357 15.489C6.27978 15.3848 6.36429 15.2607 6.4222 15.1237C6.48012 14.9867 6.51029 14.8396 6.51098 14.6908C6.51167 14.5421 6.48285 14.3947 6.4262 14.2572C6.36956 14.1196 6.2862 13.9947 6.18096 13.8896C6.07572 13.7845 5.95068 13.7013 5.81307 13.6448C5.67547 13.5884 5.52804 13.5598 5.3793 13.5606C5.23057 13.5615 5.08348 13.5919 4.94656 13.65C3.43156 14.2734 1.625 15.4041 1.625 17.25C1.625 20.4506 7.09625 22.125 12.5 22.125C15.2394 22.125 17.8306 21.7087 19.7984 20.9513C21.1344 20.4375 23.375 19.2741 23.375 17.25C23.375 15.4041 21.5684 14.2734 20.0534 13.65Z"/> </svg>

<svg viewBox="0 0 24 24" xmlns="http://www.w3.org/2000/svg" aria-hidden="true" fill="currentColor"><path d="M10.625 7.5a1.875 1.875 0 1 1 3.75 0 1.875 1.875 0 0 1-3.75 0m-4.5 0a6.375 6.375 0 0 1 12.75 0c0 5.836-5.58 9.094-5.817 9.227a1.13 1.13 0 0 1-1.116 0c-.238-.133-5.817-3.391-5.817-9.227m2.25 0c0 3.581 2.88 6.019 4.125 6.904 1.238-.89 4.125-3.341 4.125-6.904a4.125 4.125 0 0 0-8.25 0m11.678 6.15a1.125 1.125 0 1 0-.856 2.08c1.324.546 1.928 1.17 1.928 1.52 0 .375-.668 1.038-2.135 1.601-1.715.657-4.02 1.024-6.49 1.024s-4.775-.364-6.49-1.024c-1.467-.563-2.135-1.226-2.135-1.601 0-.35.604-.974 1.928-1.52a1.125 1.125 0 1 0-.856-2.08c-1.515.623-3.322 1.754-3.322 3.6 0 3.2 5.471 4.875 10.875 4.875 2.74 0 5.33-.416 7.298-1.174 1.336-.514 3.577-1.677 3.577-3.701 0-1.846-1.807-2.977-3.322-3.6"/></svg>
